X: 4539
T:Jean's Reel
M:4/4
L:1/8
C:Bobby MacLeod
S:As Played By Natalie MacMaster
R:Reel
Z:posted by Toby Rider 11/97
K:G
(3DEF|:G3A BGBd|gB (3BBB eBdB|A3B AGEG|AcBA GEDE|!
G2 GA BGBd|gabg abge|d2 Bd gedB|1AGFA G2 EF:|2AGFA G2 Bd||!
gBdg BBgB|dgBd gBdg|fdda fdaf|gfga baga|!
(3bag gf gfe^d|efgf edBd|d2 Bd gedB|1AGFA G2 Bd|AGFA G3A||!
BD (3DDD EDB,D|(3DDD B2 (3DDD B2|A2 (3DDD ADFA|dD^cD =cAFA|!
BDGB (3DDD B2|GBDG BDGB|ADFA dD^cD|cAFA G3A|!
BD (3DDD EDB,D|(3DDD B2 (3DDD B2|A2 (3DDD A,2 (3DDD|d2 (3DDD c2 (3DDD|!
BDGB (3DDD B2|GBDG BDGB|ADFA dD^cD|cAFA G2 Bd||!
gBdg BBgB|dgBd gBdg|fdda fdaf|gfga baga|!
(3bag gf gfe^d|efgf edBd|d2 Bd gedB|AGFA G2 Bd|!
gBdg _Bdg=B|dg_Bd g=Bdg|fdda fdaf|gfga baga|!
(3bag gf gfe^d|efgf edBd|d2 Bd gedB|AGFA G2||!
